X:1
T:Dallas, 77.77
T:Arranged from Luigi Cherubini (1760-1842)
T:Dallas, 77.77
T:Public Domain
C:Arranged from Luigi Cherubini (1760-1842)
Z:Public Domain
%%score ( 1 2 ) ( 3 4 )
L:1/8
M:3/4
K:D
V:1 treble 
V:2 treble 
V:3 bass 
V:4 bass 
V:1
 [FA]2 [GB]2 [FA]2 | [Gc]4 [Fd]2 | [GB]2 [FA]2 [EG]2 | [EG]2 [DF]2 z2 | [FA]2 [GB]2 [FA]2 | %5
 [Gc]4 [Fd]2 | [FB]4 [E^G]2 | [EA]4 z2 | E2 F2 [GA]2 | F2 E2 [Dd]2 | c2 e2 [Fd]2 | [Fd]2 [Ec]2 z2 | %12
 [FA]2 [GB]2 [FA]2 | [Gc]4 [Fd]2 | [DF]4 [CE]2 | D6 |] %16
V:2
 x6 | x6 | x6 | x6 | x6 | x6 | x6 | x6 | A4 x2 | A4 x2 | G4 x2 | x6 | x6 | x6 | x6 | D6 |] %16
V:3
 [D,D]4 [D,D]2 | [A,,E]4 [B,,D]2 | G,,2 z A, [A,,A,]2 | [D,A,]4 z2 | [D,D]4 [D,D]2 | %5
 [A,,E]4 [B,,D]2 | [E,C]4 [E,B,]2 | [A,,C]4 z2 | C2 D2 [A,E]2 | D2 z G, [F,A,]2 | E,2 C,2 [D,A,]2 | %11
 A,4 z2 | [D,D]4 [D,D]2 | [A,,E]4 [B,,D]2 | D2 A,2 [A,,G,]2 | [D,F,]6 |] %16
V:4
 x6 | x6 | D3 A,,2 x | x6 | x6 | x6 | x6 | x6 | A,4 x2 | A,3 C2 x | A,4 x2 | A,4 x2 | x6 | x6 | %14
 A,,4 x2 | x6 |] %16

